modules/entypo/icons/login.svg

<svg height="1000" width="900" viewbox="0 0 900 1000" xmlns="http://www.w3.org/2000/svg"><path d="M800 50c28 0 51.667 9.667 71 29s29 43 29 71v700c0 26.667-9.667 50-29 70s-43 30-71 30H350c-26.667 0-49.667-10-69-30s-29-43.333-29-70V750h98v100h450V150H350v150h-98V150c0-28 9.667-51.667 29-71s42.333-29 69-29h450M450 720V600H0V450h450V330l200 194-200 196"/></svg>

<svg height="1000px" width="900px" xmlns="http://www.w3.org/2000/svg">
  <g>
    <path d="M800 50c28 0 51.667 9.667 71 29c19.333 19.333 29 43 29 71c0 0 0 700 0 700c0 26.667 -9.667 50 -29 70c-19.333 20 -43 30 -71 30c0 0 -450 0 -450 0c-26.667 0 -49.667 -10 -69 -30c-19.333 -20 -29 -43.333 -29 -70c0 0 0 -100 0 -100c0 0 98 0 98 0c0 0 0 100 0 100c0 0 450 0 450 0c0 0 0 -700 0 -700c0 0 -450 0 -450 0c0 0 0 150 0 150c0 0 -98 0 -98 0c0 0 0 -150 0 -150c0 -28 9.667 -51.667 29 -71c19.333 -19.333 42.333 -29 69 -29c0 0 450 0 450 0c0 0 0 0 0 0m-350 670c0 0 0 -120 0 -120c0 0 -450 0 -450 0c0 0 0 -150 0 -150c0 0 450 0 450 0c0 0 0 -120 0 -120c0 0 200 194 200 194c0 0 -200 196 -200 196" />
  </g>
</svg>
